svg/fluentui-system-icons/ic_fluent_number_circle_2_20_regular.svg

<svg width="20" height="20" viewBox="0 0 20 20" fill="none" xmlns="http://www.w3.org/2000/svg">
<path d="M3 10C3 6.13401 6.13401 3 10 3C13.866 3 17 6.13401 17 10C17 13.866 13.866 17 10 17C6.13401 17 3 13.866 3 10ZM10 2C5.58172 2 2 5.58172 2 10C2 14.4183 5.58172 18 10 18C14.4183 18 18 14.4183 18 10C18 5.58172 14.4183 2 10 2ZM8.40025 7.3017C8.23437 7.52097 7.9223 7.56524 7.70192 7.40029C7.48084 7.23482 7.43576 6.92147 7.60123 6.70039L7.60231 6.69895C7.61863 6.67754 7.63556 6.65658 7.65285 6.63595C7.68213 6.60099 7.72357 6.55365 7.77672 6.4981C7.88261 6.38741 8.03738 6.24163 8.23763 6.09581C8.63625 5.80554 9.23694 5.5 9.99959 5.5C11.3804 5.5 12.4994 6.61935 12.4996 7.99992C12.4997 8.78654 12.1743 9.34822 11.7208 9.78284C11.3662 10.1227 10.9117 10.4015 10.499 10.6546C10.4191 10.7036 10.3407 10.7516 10.265 10.799C9.77045 11.1081 9.33701 11.4127 9.02036 11.8217C8.78704 12.1231 8.6059 12.4965 8.53386 13H12C12.2761 13 12.5 13.2239 12.5 13.5C12.5 13.7761 12.2761 14 12 14H8C7.72386 14 7.5 13.7761 7.5 13.5C7.5 12.5184 7.7843 11.7848 8.22963 11.2095C8.66297 10.6498 9.2295 10.2669 9.73494 9.95101C9.82749 9.89316 9.91707 9.838 10.0036 9.78471C10.4156 9.53105 10.7589 9.31961 11.0288 9.06091C11.3253 8.77678 11.4997 8.46346 11.4996 8.00008C11.4994 7.17152 10.8279 6.5 9.99959 6.5C9.51265 6.5 9.11431 6.69446 8.82629 6.90419C8.68323 7.00837 8.57278 7.11259 8.49928 7.1894C8.46274 7.2276 8.43594 7.25838 8.41941 7.27812C8.41116 7.28796 8.40552 7.295 8.40255 7.29875L8.40025 7.3017Z" fill="#212121"/>
</svg>

<svg xmlns="http://www.w3.org/2000/svg" width="20" height="20"><path d="M3 10a7 7 0 1 1 14 0 7 7 0 0 1-14 0Zm7-8a8 8 0 1 0 0 16 8 8 0 0 0 0-16ZM8.4 7.302a.5.5 0 0 1-.799-.602l.001-.001.05-.063a3.466 3.466 0 0 1 .585-.54c.4-.29 1-.596 1.763-.596A2.5 2.5 0 0 1 12.5 8c0 .787-.326 1.348-.78 1.783-.354.34-.808.619-1.221.872l-.234.144c-.495.31-.928.614-1.245 1.023A2.425 2.425 0 0 0 8.534 13H12a.5.5 0 0 1 0 1H8a.5.5 0 0 1-.5-.5c0-.982.284-1.715.73-2.29.433-.56 1-.943 1.505-1.259.092-.058.182-.113.269-.166.412-.254.755-.465 1.025-.724.296-.284.47-.598.47-1.06A1.5 1.5 0 0 0 10 6.5a1.99 1.99 0 0 0-1.173.404 2.469 2.469 0 0 0-.423.395l-.003.003Z"/></svg>
